src/standard/transportation/train.svg

<svg xmlns="http://www.w3.org/2000/svg" viewBox="0 0 36 36">
  <path d="M22 11.38h-8A3.62 3.62 0 0 0 10.38 15v12a.62.62 0 0 0 .62.62h14a.62.62 0 0 0 .62-.62V15A3.62 3.62 0 0 0 22 11.38Zm-8 1.24h8A2.39 2.39 0 0 1 24.38 15v5.38H11.62V15A2.39 2.39 0 0 1 14 12.62Zm-2.38 13.76v-4.76h12.76v4.76ZM20 9.62a.62.62 0 0 0 0-1.24h-4a.62.62 0 0 0 0 1.24Z"/>
  <path d="M13.56 23.56a.62.62 0 0 0 .88.88.62.62 0 0 0-.88-.88Zm8.68-.14a.63.63 0 1 0-.24 1.21.63.63 0 0 0 .24-1.21Zm-7.96 5.02a.63.63 0 0 0-.84.28l-1 2a.63.63 0 0 0 1.12.56l1-2a.63.63 0 0 0-.28-.84Zm8.28.28a.63.63 0 0 0-1.12.56l1 2a.62.62 0 0 0 .56.34.63.63 0 0 0 .56-.9Z"/>
  <path d="M18 3.38A14.64 14.64 0 0 0 3.38 18v13a.63.63 0 0 0 1.25 0V18a13.38 13.38 0 0 1 26.76 0v13a.62.62 0 0 0 1.24 0V18A14.64 14.64 0 0 0 18 3.38Z"/>
</svg>

<svg id="f10a4eb3-6213-42e5-903f-a1824e77481c" data-name="Icon" xmlns="http://www.w3.org/2000/svg" viewBox="0 0 36 36">
  <g>
    <path d="M22,11.38H14A3.62,3.62,0,0,0,10.38,15V27a.62.62,0,0,0,.62.62H25a.62.62,0,0,0,.62-.62V15A3.62,3.62,0,0,0,22,11.38Zm-8,1.24h8A2.39,2.39,0,0,1,24.38,15v5.38H11.62V15A2.39,2.39,0,0,1,14,12.62ZM11.62,26.38V21.62H24.38v4.76Z"/>
    <path d="M20,9.62a.62.62,0,0,0,0-1.24H16a.62.62,0,0,0,0,1.24Z"/>
    <path d="M13.56,23.56a.62.62,0,0,0,.88.88A.62.62,0,0,0,13.56,23.56Z"/>
    <path d="M22.24,23.42A.63.63,0,1,0,22,24.63.63.63,0,0,0,22.24,23.42Z"/>
    <path d="M14.28,28.44a.63.63,0,0,0-.84.28l-1,2a.63.63,0,0,0,1.12.56l1-2A.63.63,0,0,0,14.28,28.44Z"/>
    <path d="M22.56,28.72a.63.63,0,0,0-1.12.56l1,2a.62.62,0,0,0,.56.34.63.63,0,0,0,.56-.9Z"/>
    <path d="M18,3.38A14.64,14.64,0,0,0,3.38,18V31a.63.63,0,0,0,1.25,0V18a13.38,13.38,0,0,1,26.76,0V31a.62.62,0,0,0,1.24,0V18A14.64,14.64,0,0,0,18,3.38Z"/>
  </g>
</svg>
